src/img/footer-social/whatsapp.svg

<svg width="32" height="32" viewBox="0 0 32 32" fill="none" xmlns="http://www.w3.org/2000/svg">
<path d="M29 0H3C1.34315 0 0 1.34315 0 3V29C0 30.6569 1.34315 32 3 32H29C30.6569 32 32 30.6569 32 29V3C32 1.34315 30.6569 0 29 0Z" fill="#1BD741"/>
<path d="M4.80957 27.2027L6.37702 21.6357C5.36906 19.9233 4.83836 17.975 4.83836 15.9735C4.83836 9.81093 9.85198 4.7973 16.0146 4.7973C22.1771 4.7973 27.1907 9.81093 27.1907 15.9735C27.1907 22.1361 22.1771 27.1497 16.0146 27.1497C14.0943 27.1497 12.2141 26.6582 10.5507 25.7249L4.80957 27.2027ZM10.8442 23.6916L11.1863 23.9005C12.6366 24.7859 14.3062 25.2539 16.0146 25.2539C21.1318 25.2539 25.2948 21.0907 25.2948 15.9735C25.2948 10.8563 21.1318 6.69316 16.0146 6.69316C10.8974 6.69316 6.73421 10.8563 6.73421 15.9735C6.73421 17.7565 7.24097 19.488 8.19957 20.9807L8.42995 21.3395L7.52731 24.5454L10.8442 23.6916Z" fill="white"/>
<path d="M12.8753 10.7718L12.1501 10.7323C11.9223 10.7198 11.6989 10.796 11.5267 10.9455C11.1751 11.2508 10.613 11.8411 10.4403 12.6102C10.1828 13.7571 10.5807 15.1614 11.6106 16.5657C12.6405 17.9701 14.5597 20.217 17.9535 21.1767C19.0471 21.4859 19.9074 21.2774 20.5712 20.8528C21.0969 20.5166 21.4593 19.9768 21.5899 19.3666L21.7057 18.8258C21.7425 18.6539 21.6552 18.4795 21.4955 18.4059L19.0446 17.2762C18.8855 17.2029 18.6968 17.2492 18.5898 17.3879L17.6276 18.6352C17.555 18.7295 17.4305 18.7668 17.3182 18.7274C16.6593 18.4958 14.4521 17.5714 13.241 15.2385C13.1885 15.1373 13.2015 15.0145 13.276 14.9282L14.1956 13.8644C14.2895 13.7558 14.3133 13.6031 14.2568 13.4711L13.2003 10.9994C13.1441 10.8678 13.018 10.7796 12.8753 10.7718Z" fill="white"/>
</svg>

<svg width="32" height="32" fill="none" xmlns="http://www.w3.org/2000/svg"><path d="M29 0H3a3 3 0 00-3 3v26a3 3 0 003 3h26a3 3 0 003-3V3a3 3 0 00-3-3z" fill="#1BD741"/><path d="M4.81 27.203l1.567-5.567a11.142 11.142 0 01-1.539-5.662c0-6.163 5.014-11.177 11.177-11.177 6.162 0 11.176 5.014 11.176 11.177 0 6.162-5.014 11.176-11.176 11.176-1.92 0-3.8-.492-5.464-1.425L4.81 27.203zm6.034-3.511l.342.209a9.261 9.261 0 004.829 1.353c5.117 0 9.28-4.163 9.28-9.28 0-5.118-4.163-9.28-9.28-9.28-5.118 0-9.28 4.162-9.28 9.28 0 1.782.506 3.514 1.465 5.007l.23.358-.903 3.206 3.317-.853z" fill="#fff"/><path d="M12.875 10.772l-.725-.04a.877.877 0 00-.623.213c-.352.306-.914.896-1.087 1.665-.257 1.147.14 2.551 1.17 3.956 1.03 1.404 2.95 3.651 6.343 4.61 1.094.31 1.954.101 2.618-.323a2.34 2.34 0 001.019-1.486l.116-.541a.376.376 0 00-.21-.42l-2.451-1.13a.376.376 0 00-.455.112l-.962 1.247a.275.275 0 01-.31.092c-.659-.231-2.866-1.156-4.077-3.489a.278.278 0 01.035-.31l.92-1.064a.375.375 0 00.06-.393L13.2 11a.376.376 0 00-.325-.227z" fill="#fff"/></svg>
